8/img/svg/icon-house.svg

<svg width="81" height="73" viewBox="0 0 81 73" fill="none" xmlns="http://www.w3.org/2000/svg">
<path d="M31.9574 65.3H48.9787V41.4H31.9574V65.3ZM45.8936 62.4H35.0425V44.3H45.7872V62.4H45.8936Z" fill="#81B3D2"/>
<path d="M77.8085 39.4L80.0425 37.3L69.5106 27.4V0.4H54.8298V13.6L40.2553 0L0.574463 37.4L2.80851 39.5L11.1064 31.7V69.5H6.95744V72.4H74.9362V69.5H69.5106V31.6L77.8085 39.4ZM57.9149 3.4H66.3191V24.5L57.9149 16.6V3.4ZM66.4255 69.4H14.2979V28.7L40.2553 4.2L66.3191 28.7V69.4H66.4255Z" fill="#81B3D2"/>
<path d="M32.2766 27.2C32.2766 31.5 36 35 40.4681 35C45.0426 35 48.766 31.5 48.766 27.2C48.766 22.9 45.0426 19.5 40.4681 19.5C35.8936 19.5 32.2766 22.9 32.2766 27.2ZM40.4681 22.2C43.3404 22.2 45.7873 24.4 45.7873 27.2C45.7873 29.9 43.4468 32.2 40.4681 32.2C37.5958 32.2 35.149 30 35.149 27.2C35.149 24.5 37.5958 22.2 40.4681 22.2Z" fill="#81B3D2"/>
<path d="M21.7447 41.4H18.5532V45.3H21.7447V41.4Z" fill="#81B3D2"/>
<path d="M28.0213 41.4H24.8298V45.3H28.0213V41.4Z" fill="#81B3D2"/>
<path d="M21.7447 47.4H18.5532V51.3H21.7447V47.4Z" fill="#81B3D2"/>
<path d="M28.0213 47.4H24.8298V51.3H28.0213V47.4Z" fill="#81B3D2"/>
<path d="M55.6809 41.4H52.4894V45.3H55.6809V41.4Z" fill="#81B3D2"/>
<path d="M62.0639 41.4H58.8724V45.3H62.0639V41.4Z" fill="#81B3D2"/>
<path d="M55.6809 47.4H52.4894V51.3H55.6809V47.4Z" fill="#81B3D2"/>
<path d="M62.0639 47.4H58.8724V51.3H62.0639V47.4Z" fill="#81B3D2"/>
</svg>

<svg width="81" height="73" fill="none" xmlns="http://www.w3.org/2000/svg"><path d="M31.957 65.3H48.98V41.4H31.957v23.9Zm13.937-2.9H35.042V44.3h10.745v18.1h.107Z" fill="#81B3D2"/><path d="m77.808 39.4 2.234-2.1-10.531-9.9V.4H54.83v13.2L40.255 0 .575 37.4l2.234 2.1 8.297-7.8v37.8H6.957v2.9h67.98v-2.9H69.51V31.6l8.297 7.8Zm-19.893-36h8.404v21.1l-8.404-7.9V3.4Zm8.51 66H14.298V28.7L40.255 4.2 66.32 28.7v40.7h.106Z" fill="#81B3D2"/><path d="M32.277 27.2c0 4.3 3.723 7.8 8.191 7.8 4.575 0 8.298-3.5 8.298-7.8s-3.723-7.7-8.298-7.7c-4.574 0-8.191 3.4-8.191 7.7Zm8.191-5c2.872 0 5.32 2.2 5.32 5 0 2.7-2.341 5-5.32 5-2.872 0-5.319-2.2-5.319-5 0-2.7 2.447-5 5.32-5ZM21.745 41.4h-3.192v3.9h3.192v-3.9ZM28.021 41.4H24.83v3.9h3.191v-3.9ZM21.745 47.4h-3.192v3.9h3.192v-3.9ZM28.021 47.4H24.83v3.9h3.191v-3.9ZM55.68 41.4h-3.19v3.9h3.19v-3.9ZM62.064 41.4h-3.192v3.9h3.192v-3.9ZM55.68 47.4h-3.19v3.9h3.19v-3.9ZM62.064 47.4h-3.192v3.9h3.192v-3.9Z" fill="#81B3D2"/></svg>
